images/contacts/mail.svg

<svg width="62" height="62" viewBox="0 0 62 62" fill="none" xmlns="http://www.w3.org/2000/svg">
<path d="M61.9875 23.7017C61.9811 23.6305 61.9669 23.5602 61.9451 23.492C61.931 23.4311 61.9112 23.3716 61.8863 23.3142C61.8573 23.2581 61.8227 23.2051 61.783 23.1561C61.7431 23.0978 61.697 23.0442 61.6455 22.9958C61.6289 22.9814 61.6218 22.9617 61.6042 22.9473L51.6662 15.229V7.2296C51.6662 5.51749 50.2781 4.12945 48.566 4.12945H37.3672L32.8832 0.647945C31.7755 -0.215982 30.2222 -0.215982 29.1145 0.647945L24.6295 4.12945H13.4307C11.7186 4.12945 10.3305 5.51737 10.3305 7.2296V15.2291L0.395633 22.9474C0.378074 22.9619 0.370808 22.9816 0.354338 22.996C0.302871 23.0442 0.256732 23.0979 0.21689 23.1562C0.177169 23.2052 0.142535 23.2581 0.113592 23.3143C0.088524 23.3716 0.0689058 23.4312 0.0547372 23.4921C0.0331814 23.5593 0.0190127 23.6286 0.0123522 23.6988C0.0123522 23.7205 0 23.7392 0 23.7608V58.8988C0.0014532 59.5561 0.214105 60.1956 0.606589 60.7227C0.612765 60.732 0.613855 60.7434 0.621 60.7516C0.628266 60.7599 0.643767 60.7692 0.654061 60.7806C1.23461 61.5445 2.13753 61.9949 3.09701 61.999H58.8998C59.8631 61.9961 60.7697 61.5435 61.351 60.7755C61.3593 60.7652 61.3717 60.7621 61.3789 60.7518C61.3861 60.7415 61.3871 60.7322 61.3934 60.7228C61.7859 60.1956 61.9985 59.5561 62 58.8989V23.7637C61.9999 23.7421 61.9886 23.7234 61.9875 23.7017ZM30.3783 2.27856C30.7391 1.99179 31.2502 1.99179 31.6111 2.27856L33.995 4.12932H28.0014L30.3783 2.27856ZM3.35737 59.9323L30.3784 38.9431C30.7395 38.6568 31.2502 38.6568 31.6112 38.9431L58.6394 59.9323H3.35737ZM59.9332 58.3212L32.8832 37.3124C31.7753 36.4492 30.2224 36.4492 29.1145 37.3124L2.06354 58.3212V25.3376L18.9977 38.4874C19.4489 38.8373 20.0982 38.7552 20.4481 38.304C20.7979 37.8527 20.7158 37.2034 20.2646 36.8535L3.0608 23.495L10.3307 17.8455V25.8304C10.3307 26.4012 10.7934 26.8638 11.364 26.8638C11.9348 26.8638 12.3974 26.4011 12.3974 25.8304V7.22948C12.3974 6.65874 12.86 6.19614 13.4307 6.19614H48.5658C49.1365 6.19614 49.5991 6.65874 49.5991 7.22948V25.8304C49.5991 26.4012 50.0617 26.8638 50.6325 26.8638C51.2032 26.8638 51.6658 26.4011 51.6658 25.8304V17.8455L58.9357 23.495L41.702 36.8774C41.4055 37.102 41.2526 37.4687 41.3017 37.8375C41.3509 38.2062 41.5944 38.5201 41.9394 38.6593C42.2845 38.7984 42.6777 38.7415 42.9689 38.5101L59.9329 25.3376V58.3212H59.9332Z" fill="#CB8734"/>
<path d="M43.3989 24.7971V20.6636C43.3989 13.8149 37.847 8.26294 30.9983 8.26294C24.1496 8.26294 18.5977 13.8149 18.5977 20.6636C18.5977 27.5123 24.1496 33.0642 30.9983 33.0642C31.569 33.0642 32.0316 32.6016 32.0316 32.0309C32.0316 31.4601 31.569 30.9975 30.9983 30.9975C25.2911 30.9975 20.6645 26.3709 20.6645 20.6637C20.6645 14.9565 25.2911 10.3299 30.9983 10.3299C36.7055 10.3299 41.3321 14.9565 41.3321 20.6637V24.7972C41.3321 25.9387 40.4068 26.864 39.2653 26.864C38.1238 26.864 37.1985 25.9387 37.1985 24.7972V20.6637C37.1985 20.0929 36.7359 19.6303 36.1651 19.6303C35.5944 19.6303 35.1318 20.0929 35.1318 20.6637C35.1318 22.9465 33.2811 24.7972 30.9983 24.7972C28.7154 24.7972 26.8648 22.9465 26.8648 20.6637C26.8648 18.3808 28.7154 16.5302 30.9983 16.5302C31.569 16.5302 32.0316 16.0676 32.0316 15.4968C32.0316 14.9261 31.569 14.4635 30.9983 14.4635C28.2233 14.4573 25.782 16.2957 25.0215 18.9645C24.261 21.6333 25.3663 24.4825 27.7277 25.94C30.0892 27.3976 33.1315 27.1086 35.1762 25.2324C35.4012 27.4178 37.3007 29.0427 39.4945 28.9266C41.6885 28.8103 43.4058 26.9941 43.3989 24.7971Z" fill="#CB8734"/>
</svg>

<svg width="62" height="62" fill="none" xmlns="http://www.w3.org/2000/svg"><path d="M61.987 23.702a.975.975 0 0 0-.042-.21 1.032 1.032 0 0 0-.059-.178.928.928 0 0 0-.103-.158.978.978 0 0 0-.138-.16c-.016-.015-.023-.034-.04-.049l-9.939-7.718v-8a3.1 3.1 0 0 0-3.1-3.1H37.367L32.883.648a3.064 3.064 0 0 0-3.769 0L24.63 4.129H13.431a3.1 3.1 0 0 0-3.1 3.1v8L.396 22.947c-.018.015-.025.035-.042.049a.967.967 0 0 0-.137.16.92.92 0 0 0-.103.158 1.02 1.02 0 0 0-.06.178.98.98 0 0 0-.042.207c0 .021-.012.04-.012.062v35.138c.001.657.214 1.297.607 1.824.006.009.007.02.014.029.007.008.023.017.033.029a3.085 3.085 0 0 0 2.443 1.218H58.9a3.086 3.086 0 0 0 2.451-1.224c.008-.01.02-.013.028-.023.007-.01.008-.02.014-.03A3.066 3.066 0 0 0 62 58.9V23.764c0-.022-.011-.04-.013-.062zM30.378 2.279a.99.99 0 0 1 1.233 0l2.384 1.85h-5.994l2.377-1.85zM3.358 59.932l27.02-20.989a.992.992 0 0 1 1.233 0l27.028 20.99H3.357zm56.575-1.61-27.05-21.01a3.066 3.066 0 0 0-3.769 0l-27.05 21.01V25.337l16.934 13.15a1.034 1.034 0 1 0 1.267-1.635L3.06 23.495l7.27-5.65v7.985a1.033 1.033 0 1 0 2.066 0V7.23c0-.571.463-1.034 1.034-1.034h35.135c.57 0 1.033.463 1.033 1.033V25.83a1.033 1.033 0 1 0 2.067 0v-7.984l7.27 5.649-17.234 13.382a1.033 1.033 0 1 0 1.267 1.633l16.964-13.172V58.32z" fill="#CB8734"/><path d="M43.399 24.797v-4.133c0-6.85-5.552-12.401-12.4-12.401-6.85 0-12.401 5.552-12.401 12.4 0 6.85 5.552 12.401 12.4 12.401a1.033 1.033 0 1 0 0-2.067c-5.707 0-10.334-4.626-10.334-10.333 0-5.708 4.627-10.334 10.334-10.334s10.334 4.627 10.334 10.334v4.133a2.067 2.067 0 1 1-4.133 0v-4.133a1.033 1.033 0 1 0-2.067 0 4.134 4.134 0 1 1-4.134-4.134 1.033 1.033 0 1 0 0-2.067 6.2 6.2 0 1 0 4.178 10.77 4.122 4.122 0 0 0 8.223-.436z" fill="#CB8734"/></svg>
